deployments/warp_routes/MAGIC/logo.svg

<svg xmlns="http://www.w3.org/2000/svg" width="400" height="400" fill="none" viewBox="0 0 400 400"><path fill="#DC2626" d="M0 0h400v400H0z"/><path fill="#FFFDF7" d="m336.798 195.561-41.39-13.996c-15.211-5.118-26.498-17.995-29.701-33.67l-17.452-86.136c-.481-2.16-2.402-3.759-4.644-3.759s-4.162 1.6-4.643 3.759l-17.452 86.136c-3.202 15.675-14.491 28.552-29.701 33.67l-41.39 13.996c-1.921.64-3.202 2.48-3.202 4.479s1.281 3.839 3.202 4.479l41.39 13.996c15.21 5.118 26.499 17.995 29.701 33.67l17.452 86.056c.481 2.159 2.402 3.759 4.643 3.759 2.242 0 4.163-1.6 4.644-3.759l17.452-86.056c3.203-15.675 14.49-28.552 29.701-33.67l41.39-13.996c1.921-.64 3.202-2.48 3.202-4.479s-1.281-3.839-3.202-4.479m-222.399-78.938 14.571 4.959c5.363 1.84 9.366 6.318 10.487 11.917l6.164 30.391c.161.8.801 1.36 1.602 1.36.8 0 1.441-.56 1.601-1.36l6.164-30.391c1.121-5.519 5.124-10.077 10.488-11.917l14.57-4.959c.64-.239 1.121-.879 1.121-1.599s-.481-1.36-1.121-1.6l-14.57-4.958c-5.364-1.84-9.367-6.318-10.488-11.917l-6.164-30.391c-.16-.8-.801-1.36-1.601-1.36-.801 0-1.441.56-1.602 1.36l-6.164 30.391c-1.121 5.519-5.124 10.077-10.487 11.917l-14.571 4.958c-.64.24-1.121.88-1.121 1.6s.481 1.36 1.121 1.599m34.025 149.318-19.534-6.638c-7.205-2.399-12.569-8.477-14.01-15.915l-8.246-40.709c-.24-1.039-1.121-1.759-2.162-1.759s-2.001.72-2.161 1.759l-8.246 40.709c-1.521 7.438-6.885 13.516-14.01 15.915l-19.534 6.638c-.88.32-1.521 1.12-1.521 2.08s.64 1.839 1.521 2.079l19.534 6.638c7.205 2.4 12.569 8.478 14.01 15.916l8.246 40.708c.24 1.04 1.121 1.76 2.161 1.76s2.002-.72 2.162-1.76l8.246-40.708c1.521-7.438 6.885-13.516 14.01-15.916l19.534-6.638c.88-.32 1.521-1.119 1.521-2.079s-.641-1.84-1.521-2.08"/></svg>

<svg width="400" height="400" viewBox="0 0 400 400" fill="none" xmlns="http://www.w3.org/2000/svg">
<rect width="400" height="400" fill="#DC2626"/>
<path d="M336.798 195.561L295.408 181.565C280.197 176.447 268.91 163.57 265.707 147.895L248.255 61.7589C247.774 59.5995 245.853 58 243.611 58C241.37 58 239.449 59.5995 238.968 61.7589L221.516 147.895C218.314 163.57 207.025 176.447 191.815 181.565L150.425 195.561C148.504 196.201 147.223 198.041 147.223 200.04C147.223 202.039 148.504 203.879 150.425 204.519L191.815 218.515C207.025 223.633 218.314 236.51 221.516 252.185L238.968 338.241C239.449 340.4 241.37 342 243.611 342C245.853 342 247.774 340.4 248.255 338.241L265.707 252.185C268.91 236.51 280.197 223.633 295.408 218.515L336.798 204.519C338.719 203.879 340 202.039 340 200.04C340 198.041 338.719 196.201 336.798 195.561Z" fill="#FFFDF7"/>
<path d="M114.399 116.623L128.97 121.582C134.333 123.422 138.336 127.9 139.457 133.499L145.621 163.89C145.782 164.69 146.422 165.25 147.223 165.25C148.023 165.25 148.664 164.69 148.824 163.89L154.988 133.499C156.109 127.98 160.112 123.422 165.476 121.582L180.046 116.623C180.686 116.384 181.167 115.744 181.167 115.024C181.167 114.304 180.686 113.664 180.046 113.424L165.476 108.466C160.112 106.626 156.109 102.148 154.988 96.5491L148.824 66.1577C148.664 65.3579 148.023 64.798 147.223 64.798C146.422 64.798 145.782 65.3579 145.621 66.1577L139.457 96.5491C138.336 102.068 134.333 106.626 128.97 108.466L114.399 113.424C113.759 113.664 113.278 114.304 113.278 115.024C113.278 115.744 113.759 116.384 114.399 116.623Z" fill="#FFFDF7"/>
<path d="M148.424 265.941L128.89 259.303C121.685 256.904 116.321 250.826 114.88 243.388L106.634 202.679C106.394 201.64 105.513 200.92 104.472 200.92C103.432 200.92 102.471 201.64 102.311 202.679L94.065 243.388C92.5439 250.826 87.1801 256.904 80.055 259.303L60.5211 265.941C59.6405 266.261 59 267.061 59 268.021C59 268.981 59.6405 269.86 60.5211 270.1L80.055 276.738C87.2601 279.138 92.624 285.216 94.065 292.654L102.311 333.362C102.551 334.402 103.432 335.122 104.472 335.122C105.513 335.122 106.474 334.402 106.634 333.362L114.88 292.654C116.401 285.216 121.765 279.138 128.89 276.738L148.424 270.1C149.304 269.78 149.945 268.981 149.945 268.021C149.945 267.061 149.304 266.181 148.424 265.941Z" fill="#FFFDF7"/>
</svg>
